X: 4
T: the Convenience Reel
T: Masterson's Reel
C: Olcan Masterson
R: reel
Z: 2012 John Chambers <jc@trillian.mit.edu>
S: https://www.facebook.com/groups/Fiddletuneoftheday/ 2020-08-30
B: "100 Essential Irish Session Tunes" 1995 Dave Mallinson, ed.
M: 4/4
L: 1/8
K: D
"(A)"ABA "^A"|\
"D"dABA dABA | "G"GAFA "A"EABA | "D"dABA dABA | "G"FAEA "A"DABA |
"D"dABA dABA | "G"GAFA "A"EABA | "D"dABA dABA | "A7"FAEA "D"D4 |]
"^B"[|\
"D"df f/f/f df f/f/f | "A7"eAce gecA | "D"df f/f/f dfed | "A7"cABc "D"dABc |
"D"df f/f/f df f/f/f | "A7"eAce gecA | "D"df f/f/f dfed | "A7"cABc "D"defg |]
"^C"|:\
"A"a3g efge | "A"Ae g/f/e Ae g/f/e | a^ga=g efge | Addc "D"defg |
"A"aA A/A/A aAaA | "A7"gA A/A/A gAgA | "D"fgaf "G"gbag |1 "A7"fgec "D"defg :|2 "A7"fgec "D"d |]
